X:876
T:Waggle O'The Kilt, The 
C:Joe Buchanan's Scottish Tome - Page 434.3
I:434 3
R:Two-step
Z:Carl Allison
L:1/8
M:6/8
K:C
G | "C"C3 "C"C3 | "C"c2 c "C"c2 B | "G7"A2 G "G7"E2 F | "G"G3 "G7"EEE |
"C"C2 D "C"E2 F | "C"G2 A "C"B2 c | "D7"d2 ^c "D7"d2 e | "G7"d3 GAB |
"C"c2 d "C7"e2 d | "C"c2 B "F"c2 A | "C"G2 A "C"G2 E | "Dm"D3 "C7"E2 F |
"C"G3 "C"G3 | "C"G3 "C"G3 | "F7"c2 B A2 B | (c3 c2) |]

